X: 14
T: Gladys Kindness
C: Allan Kindness
N: Often incorrectly attributed to Angus Cameron, who recorded the tune but didn't compose it.
R: reel
Z: 2005 John Chambers <jc:trillian.mit.edu>
M: 2/4
L: 1/16
K: D
AG \
| "D"F2DF A2FA | "G"B2GB d2cB | "D"A2d2 fedf | "Em"e2E2 "A7"E2AG \
| "D"F2DF A2FA | "G"B2GB d2cB | "D"A2d2 "A7"cdeg | "D"f2d2 d2 :|
cd \
| "A7"e2A2 cdeg | "D"f2d2 d2cd | "G"B2GB "D"A2FA | "Em"G2E2 E2d2 \
| "A7"cdec A2eg | "D"f2d2 dAFA | "Em"G2E2 "A7"ABAG | "D"F2D2 D2 |]
cd \
| "A7"e2A2 cdeg | "D"f2d2 d2cd | "G"B2GB "D"A2FA | "Em"G2E2 E2AG \
| "D"F2DF A2FA | "G"B2GB d2cB | "D"A2d2 "A7"cdeg | "D"f2d2 d2 |]
%%sep 3 1 500
